X: 1
T: Eik\"a sielt\"a Atlantin rannoilta kuulu
M: 4/4
L: 1/8
K: Am
|: "Am"A2 AB c2 cB | A2 Ac e2 e2 | "C"g2 ga gf ed | "E7"e4 e4 :|
|: "Am"e2 fe "Dm"d2 ed | "Am"c2 d2 "(F)"c2 A2 | "G7"G2 cd "E7"e2 B2 | "Am"A4 A4 :|
